svg/wrong.svg

<svg viewBox="0 0 612 792" xmlns="http://www.w3.org/2000/svg">
<path d="m562 396c0-141.4-114.6-256-256-256s-256 114.6-256 256 114.6 256 256 256 256-114.6 256-256zm-205.2 0l118.2 118.2-50.8 50.8-118.2-118.2-118.2 118.2-50.8-50.8 118.2-118.2-118.2-118.2 50.8-50.8 118.2 118.2 118.2-118.2 50.8 50.8-118.2 118.2z" fill="red"/>
</svg>

<?xml version="1.0" ?><svg id="Layer_1" style="enable-background:new 0 0 612 792;" version="1.1" viewBox="0 0 612 792" xml:space="preserve" xmlns="http://www.w3.org/2000/svg" xmlns:xlink="http://www.w3.org/1999/xlink"><style type="text/css">
</style><g><path fill="red" class="st0" d="M562,396c0-141.4-114.6-256-256-256S50,254.6,50,396s114.6,256,256,256S562,537.4,562,396L562,396z M356.8,396   L475,514.2L424.2,565L306,446.8L187.8,565L137,514.2L255.2,396L137,277.8l50.8-50.8L306,345.2L424.2,227l50.8,50.8L356.8,396   L356.8,396z"/></g></svg>
